dji-master/img/icons/star.svg

<svg width="13" height="13" viewBox="0 0 13 13" fill="none" xmlns="http://www.w3.org/2000/svg">
<path d="M13 5.05469C13 4.82031 12.75 4.72656 12.5625 4.69531L8.64062 4.125L6.88281 0.570312C6.8125 0.421875 6.67969 0.25 6.5 0.25C6.32031 0.25 6.1875 0.421875 6.11719 0.570312L4.35938 4.125L0.4375 4.69531C0.242188 4.72656 0 4.82031 0 5.05469C0 5.19531 0.101563 5.32812 0.195313 5.42969L3.03906 8.19531L2.36719 12.1016C2.35938 12.1563 2.35156 12.2031 2.35156 12.2578C2.35156 12.4609 2.45313 12.6484 2.67969 12.6484C2.78906 12.6484 2.89063 12.6094 2.99219 12.5547L6.5 10.7109L10.0078 12.5547C10.1016 12.6094 10.2109 12.6484 10.3203 12.6484C10.5469 12.6484 10.6406 12.4609 10.6406 12.2578C10.6406 12.2031 10.6406 12.1563 10.6328 12.1016L9.96094 8.19531L12.7969 5.42969C12.8984 5.32812 13 5.19531 13 5.05469Z" fill="#FFD83A"/>
</svg>

<svg width="13" height="13" fill="none" xmlns="http://www.w3.org/2000/svg"><path d="M13 5.055c0-.235-.25-.328-.438-.36l-3.921-.57L6.883.57C6.813.422 6.68.25 6.5.25s-.313.172-.383.32L4.36 4.125l-3.921.57C.241 4.727 0 4.82 0 5.055c0 .14.102.273.195.375L3.04 8.195l-.672 3.907c-.008.054-.015.101-.015.156 0 .203.101.39.328.39a.66.66 0 00.312-.093L6.5 10.71l3.508 1.844a.634.634 0 00.312.093c.227 0 .32-.187.32-.39 0-.055 0-.102-.007-.156L9.96 8.195l2.836-2.765c.101-.102.203-.235.203-.375z" fill="#FFD83A"/></svg>
